X:1
T:Title
%%score { ( 1 3 ) | ( 2 4 ) }
L:1/8
Q:1/4=107
M:6/8
K:G
V:1 treble nm="Grand Piano"
V:3 treble 
V:2 bass 
V:4 bass 
V:1
 [DB]3 [EB]2 [B,B] | [DB]3 [GB]3 | [GB]3 [FB]2 [EB] | [Fc]6 | [Fc]3 .[Ec]3 | .A3 .[Fc]3 | %6
w: W.~Stillman~Martin * *||||||
 [Ec]3 .[Fc]3 | [DB]6 | [DB]3 [EB]2 [B,B] | [DB]3 [GB]3 | [GB]3 [FB]2 [=FB] | [Ec]6 | %12
w: ||||||
 [Ge]3 .[Ge]3 | [Bd]3[K:bass] D3 | [Ec]3 .[DB]3 | [B,G]6 | [Fd]3 [Ad]2 [Gd] | [Fd]3 [DF]3 | %18
w: ||||||
 [DG]3 A2 A | B6 | [^Ge]3 [Be]2 [Ae] | [^Ge]3 [GB]3 | [Bd]3 [Ac]2 [^GB] | c6 | [Ac]3 [Fd]2 [Fc] | %25
w: |||||||
 B3 G3 | B3 A2 G | c6 | [Ge]3 [Ge]2 [G^d] | [Bd]3 [DGB]3 | [EFc]3 [DFB]2 [CFA] | [B,DG]6 |] %32
w: |||||||
V:2
 G,,B,,D, G,D,B,, | G,,B,,D, G,D,B,, | G,,B,,D, G,D,B,, | A,,D,F, D,3 | D,F,F, D,F,[F,A,C] | %5
 D,F,F, D,F,[F,A,C] | D,F,F, D,F,[F,A,C] | G,,B,,D, G,D,B,, | G,,B,,D, G,D,B,, | G,,B,,D, G,D,B,, | %10
 G,,B,,D, G,D,B,, | C,E,G, C,3 | C,E,E, C,E,[E,G,C] | D,G,G, D,G,G, | D,F,F, D,F,F, | %15
 G,,B,,D, G,,3 | [D,A,]3 [D,C]2 [D,B,] | [D,A,]3 [C,A,]3 | [B,,G,]3 [D,F,D]2 [D,F,D] | [G,D]6 | %20
 [E,B,]3 [E,D]2 [E,C] | [E,B,]3 [E,E]3 | [E,E]3 [E,E]2 [E,E] | [EA]6 | [F,D]3 [D,D]2 [D,D] | %25
 [G,DG]3 [G,B,D]3 | [G,D]3 [F,A,D]2 [=F,B,D] | [E,G,C]6 | [C,C]3 [C,C]2 [C,C] | [D,B,]3 D,3 | %30
 D,3 D,2 D, | G,6 |] %32
V:3
 x6 | x6 | x6 | z3 A,3 | z [A,C][A,C] z [A,C][Fc] | c-[A,Cc-][A,CGc] z [A,C][Ec] | %6
 z [A,C][A,C] z [A,C][Ec] | x6 | x6 | x6 | x6 | z3 G,3 | z [G,C][G,C] z [G,C][A^d] | %13
 z[K:bass] B,B, z B,B, | z A,A, z A,[A,CA] | z3 [D,G,]3 | x6 | x6 | x6 | z3 =F,3 | x6 | x6 | x6 | %23
 z3 G,3 | x6 | x6 | x6 | x6 | x6 | x6 | x6 | x6 |] %32
V:4
 x6 | x6 | x6 | x6 | x6 | x6 | x6 | x6 | x6 | x6 | x6 | x6 | x6 | x6 | x6 | x6 | x6 | x6 | x6 | %19
 x6 | x6 | x6 | x6 | A,3 z3 | x6 | x6 | x6 | x6 | x6 | x6 | x6 | x6 |] %32

